svgs/duotone/police-box.svg

<svg xmlns="http://www.w3.org/2000/svg" viewBox="0 0 448 512"><!-- Font Awesome Pro 6.0.0-alpha2 by @fontawesome - https://fontawesome.com License - https://fontawesome.com/license (Commercial License) --><defs><style>.fa-secondary{opacity:.4}</style></defs><path d="M240 160H272V128H248C243.582 128 240 131.582 240 136V160ZM240 200C240 204.418 243.582 208 248 208H272V176H240V200ZM320 136C320 131.582 316.418 128 312 128H288V160H320V136ZM320 200V176H288V208H312C316.418 208 320 204.418 320 200ZM240 16C240 7.164 232.836 0 224 0S208 7.164 208 16V32H240V16ZM136 208H160V176H128V200C128 204.418 131.582 208 136 208ZM400 464H48C39.164 464 32 471.162 32 480V496C32 504.836 39.164 512 48 512H400C408.836 512 416 504.836 416 496V480C416 471.164 408.838 464 400 464ZM160 128H136C131.582 128 128 131.582 128 136V160H160V128ZM208 136C208 131.582 204.418 128 200 128H176V160H208V136ZM208 200V176H176V208H200C204.418 208 208 204.418 208 200Z" class="fa-secondary"/><path d="M360 64H351.977V48C351.977 39.164 344.814 32 335.977 32H112C103.164 32 96 39.162 96 48V64H88C74.746 64 64 74.744 64 88V464H384V88C384 74.746 373.256 64 360 64ZM128 136C128 131.582 131.582 128 136 128H160V160H128V136ZM128 176H160V208H136C131.582 208 128 204.418 128 200V176ZM208 312C208 316.418 204.418 320 200 320H136C131.582 320 128 316.418 128 312V248C128 243.582 131.582 240 136 240H200C204.418 240 208 243.582 208 248V312ZM208 200C208 204.418 204.418 208 200 208H176V176H208V200ZM208 160H176V128H200C204.418 128 208 131.582 208 136V160ZM272 208H248C243.582 208 240 204.418 240 200V176H272V208ZM272 160H240V136C240 131.582 243.582 128 248 128H272V160ZM320 200C320 204.418 316.418 208 312 208H288V176H320V200ZM320 160H288V128H312C316.418 128 320 131.582 320 136V160Z" class="fa-primary"/></svg>

<svg xmlns="http://www.w3.org/2000/svg" viewBox="0 0 448 512"><!--! Font Awesome Pro 6.0.0-alpha3 by @fontawesome - https://fontawesome.com License - https://fontawesome.com/license (Commercial License) --><defs><style>.fa-secondary{opacity:.4}</style></defs><path class="fa-primary" d="M360 64h-8.006V48c0-8.836-7.162-16-16-16H112C103.2 32 96 39.16 96 48V64H88C74.75 64 64 74.74 64 88V464h320V88C384 74.75 373.3 64 360 64zM128 136C128 131.6 131.6 128 136 128H160v32H128V136zM128 176h32v32H136C131.6 208 128 204.4 128 200V176zM208 312C208 316.4 204.4 320 200 320h-64C131.6 320 128 316.4 128 312v-64C128 243.6 131.6 240 136 240h64c4.418 0 8 3.582 8 8V312zM208 200c0 4.418-3.582 8-8 8H176v-32h32V200zM208 160h-32V128h24C204.4 128 208 131.6 208 136V160zM272 208h-24c-4.418 0-8-3.582-8-8V176h32V208zM272 160h-32V136C240 131.6 243.6 128 248 128h24V160zM320 200c0 4.418-3.582 8-8 8H288v-32h32V200zM320 160h-32V128h24C316.4 128 320 131.6 320 136V160z"/><path class="fa-secondary" d="M240 160h32V128h-24c-4.418 0-8 3.582-8 8V160zM240 200c0 4.418 3.582 8 8 8h24v-32h-32V200zM320 136C320 131.6 316.4 128 312 128H288v32h32V136zM320 200V176h-32v32h24C316.4 208 320 204.4 320 200zM240 16C240 7.164 232.8 0 224 0S208 7.164 208 16V32h32V16zM136 208H160v-32H128v24C128 204.4 131.6 208 136 208zM400 464h-352C39.16 464 32 471.2 32 480v16C32 504.8 39.16 512 48 512h352c8.836 0 16-7.164 16-16V480C416 471.2 408.8 464 400 464zM160 128H136C131.6 128 128 131.6 128 136V160h32V128zM208 136C208 131.6 204.4 128 200 128H176v32h32V136zM208 200V176h-32v32h24C204.4 208 208 204.4 208 200z"/></svg>
